assets/icons/qvision/text_snippet.svg

<svg xmlns="http://www.w3.org/2000/svg" enable-background="new 0 0 24 24" height="24" viewBox="0 0 24 24" width="24"><g><rect fill="none" height="24" width="24"/><path d="M20.41,8.41l-4.83-4.83C15.21,3.21,14.7,3,14.17,3H5C3.9,3,3,3.9,3,5v14c0,1.1,0.9,2,2,2h14c1.1,0,2-0.9,2-2V9.83 C21,9.3,20.79,8.79,20.41,8.41z M7,7h7v2H7V7z M17,17H7v-2h10V17z M17,13H7v-2h10V13z"/></g></svg>

<svg width="24" height="24" viewBox="0 0 24 24" fill="none" xmlns="http://www.w3.org/2000/svg">
<g clip-path="url(#clip0_147_2896)">
<path d="M20.41 8.41L15.58 3.58C15.21 3.21 14.7 3 14.17 3H5C3.9 3 3 3.9 3 5V19C3 20.1 3.9 21 5 21H19C20.1 21 21 20.1 21 19V9.83C21 9.3 20.79 8.79 20.41 8.41ZM7 7H14V9H7V7ZM17 17H7V15H17V17ZM17 13H7V11H17V13Z" fill="#323232"/>
</g>
<defs>
<clipPath id="clip0_147_2896">
<rect width="24" height="24" fill="white"/>
</clipPath>
</defs>
</svg>
